resources/images/dv-image-logo-sheild.svg

<svg viewBox="0 0 32 32" xmlns="http://www.w3.org/2000/svg"><path d="m5.124 8.647c-.513 2.891.47 6.979 2.763 10.967s5.355 6.879 8.118 7.9v-21.929c-4.614 0-8.659 1.2-10.909 3.062z" fill="#00f"/><path d="m24.1 19.614c2.307-3.988 3.276-8.076 2.791-10.967-2.255-1.847-6.271-3.062-10.9-3.062v21.933c2.749-1.025 5.811-3.917 8.118-7.9z" fill="#e9d100"/><path d="m21.446 9.174a15.442 15.442 0 0 0 -2.046-.427 7.2 7.2 0 0 1 -.043.94c-.057.712-.142 1.467-.242 2.207a5.679 5.679 0 0 1 1.211.527 6.243 6.243 0 0 1 -.214 1.538 9.757 9.757 0 0 1 -1.139 2.707 9.075 9.075 0 0 1 -1.743 2.334 7.263 7.263 0 0 1 -1.239.94 6.255 6.255 0 0 1 -1.225-.94 10 10 0 0 1 -1.78-2.335 10.645 10.645 0 0 1 -1.139-2.707 5.626 5.626 0 0 1 -.186-1.538 4.74 4.74 0 0 1 1.2-.527c-.1-.74-.185-1.5-.242-2.207 0-.342-.029-.655-.043-.954-.712.142-1.4.284-2.037.455a10.727 10.727 0 0 0 -2.666 1.113 11.641 11.641 0 0 0 .384 2.877 19.8 19.8 0 0 0 2.108 5.07 20.435 20.435 0 0 0 3.335 4.353 11.771 11.771 0 0 0 2.279 1.767 11.07 11.07 0 0 0 2.305-1.767 21.072 21.072 0 0 0 3.333-4.358 19.6 19.6 0 0 0 2.108-5.07 10.516 10.516 0 0 0 .384-2.877 11.37 11.37 0 0 0 -2.663-1.111z" fill="#fff"/></svg>

<svg id="Layer_1" data-name="Layer 1" xmlns="http://www.w3.org/2000/svg" viewBox="0 0 32 32">
  <title>logo</title>
  <g>
    <path id="Shape" d="M5.124,8.647c-.513,2.891.47,6.979,2.763,10.967s5.355,6.879,8.118,7.9V5.585c-4.614,0-8.659,1.2-10.909,3.062Z" fill="#0000FF"/>
    <path id="Shape-2" data-name="Shape" d="M24.1,19.614c2.307-3.988,3.276-8.076,2.791-10.967C24.636,6.8,20.62,5.585,15.991,5.585V27.518c2.749-1.025,5.811-3.917,8.118-7.9Z" fill="#e9d100"/>
    <path id="Shape-3" data-name="Shape" d="M21.446,9.174A15.442,15.442,0,0,0,19.4,8.747a7.2,7.2,0,0,1-.043.94c-.057.712-.142,1.467-.242,2.207a5.679,5.679,0,0,1,1.211.527,6.243,6.243,0,0,1-.214,1.538,9.757,9.757,0,0,1-1.139,2.707A9.075,9.075,0,0,1,17.23,19a7.263,7.263,0,0,1-1.239.94A6.255,6.255,0,0,1,14.766,19a10,10,0,0,1-1.78-2.335,10.645,10.645,0,0,1-1.139-2.707,5.626,5.626,0,0,1-.186-1.538,4.74,4.74,0,0,1,1.2-.527c-.1-.74-.185-1.5-.242-2.207,0-.342-.029-.655-.043-.954-.712.142-1.4.284-2.037.455A10.727,10.727,0,0,0,7.873,10.3a11.641,11.641,0,0,0,.384,2.877,19.8,19.8,0,0,0,2.108,5.07A20.435,20.435,0,0,0,13.7,22.6a11.771,11.771,0,0,0,2.279,1.767A11.07,11.07,0,0,0,18.284,22.6a21.072,21.072,0,0,0,3.333-4.358,19.6,19.6,0,0,0,2.108-5.07,10.516,10.516,0,0,0,.384-2.877,11.37,11.37,0,0,0-2.663-1.111Z" fill="#fff"/>
  </g>
</svg>
